ui/StatusQ/src/assets/img/icons/profile/ensUsernames.svg

<svg fill="none" height="24" viewBox="0 0 24 24" width="24" xmlns="http://www.w3.org/2000/svg"><path clip-rule="evenodd" d="m12 2c-5.52285 0-10 4.47715-10 10 0 5.5228 4.47715 10 10 10 .4142 0 .75-.3358.75-.75s-.3358-.75-.75-.75c-4.69442 0-8.5-3.8056-8.5-8.5 0-4.69442 3.80558-8.5 8.5-8.5 4.6944 0 8.5 3.80558 8.5 8.5v2.375c0 1.0355-.8395 1.875-1.875 1.875s-1.875-.8395-1.875-1.875v-6.375c0-.41421-.3358-.75-.75-.75s-.75.33579-.75.75c0 .1176-.143.17946-.2329.10367-.8379-.70626-1.9027-1.10367-3.0171-1.10367-2.76142 0-5 2.23858-5 5 0 2.7614 2.23858 5 5 5 1.031 0 2.0194-.3401 2.8251-.9503.3004-.2274.7751-.1293.983.1849.604.9131 1.6401 1.5154 2.8169 1.5154 1.864 0 3.375-1.511 3.375-3.375v-2.375c0-5.52285-4.4772-10-10-10zm3.25 10c0 2.1716-1.5784 3.5-3.25 3.5-1.933 0-3.5-1.567-3.5-3.5s1.567-3.5 3.5-3.5c1.6716 0 3.25 1.32843 3.25 3.5z" fill="#4360df" fill-rule="evenodd"/></svg>

<svg width="24" height="24" viewBox="0 0 24 24" fill="none" xmlns="http://www.w3.org/2000/svg">
<path fill-rule="evenodd" clip-rule="evenodd" d="M12 2C6.47715 2 2 6.47715 2 12C2 17.5228 6.47715 22 12 22C12.4142 22 12.75 21.6642 12.75 21.25C12.75 20.8358 12.4142 20.5 12 20.5C7.30558 20.5 3.5 16.6944 3.5 12C3.5 7.30558 7.30558 3.5 12 3.5C16.6944 3.5 20.5 7.30558 20.5 12V14.375C20.5 15.4105 19.6605 16.25 18.625 16.25C17.5895 16.25 16.75 15.4105 16.75 14.375V8C16.75 7.58579 16.4142 7.25 16 7.25C15.5858 7.25 15.25 7.58579 15.25 8C15.25 8.1176 15.107 8.17946 15.0171 8.10367C14.1792 7.39741 13.1144 7 12 7C9.23858 7 7 9.23858 7 12C7 14.7614 9.23858 17 12 17C13.031 17 14.0194 16.6599 14.8251 16.0497C15.1255 15.8223 15.6002 15.9204 15.8081 16.2346C16.4121 17.1477 17.4482 17.75 18.625 17.75C20.489 17.75 22 16.239 22 14.375V12C22 6.47715 17.5228 2 12 2ZM15.25 12C15.25 14.1716 13.6716 15.5 12 15.5C10.067 15.5 8.5 13.933 8.5 12C8.5 10.067 10.067 8.5 12 8.5C13.6716 8.5 15.25 9.82843 15.25 12Z" fill="#4360DF"/>
</svg>
